assets/logos/SVG/DAO-alt.svg

<svg viewBox="0 0 226.8 226.8" xmlns="http://www.w3.org/2000/svg"><path d="m79.5 157.1h36.3c19.5 0 37.6-10.1 37.6-43.7 0-33.5-22.2-44.4-37-44.4h-37v40.6h-8.5v7.4h8.5v40.1zm11.4-40.1h22.5v-7.4h-22.5v-29.6h25.3c10.1 0 25.3 8.1 25.3 33.3s-12.4 32.8-25.7 32.8h-24.9z"/><path d="m113.4 0c-62.6 0-113.4 50.8-113.4 113.4s50.8 113.4 113.4 113.4 113.4-50.8 113.4-113.4-50.8-113.4-113.4-113.4zm56.6 170h-113.2v-113.2h113.2z"/></svg>

<svg xmlns="http://www.w3.org/2000/svg" viewBox="0 0 226.8 226.8"><path class="st0" d="M79.5 157.1h36.3c19.5 0 37.6-10.1 37.6-43.7 0-33.5-22.2-44.4-37-44.4h-37v40.6h-8.5v7.4h8.5v40.1zM90.9 117h22.5v-7.4H90.9V80h25.3c10.1 0 25.3 8.1 25.3 33.3 0 25.2-12.4 32.8-25.7 32.8H90.9V117z"/><path class="st0" d="M113.4 0C50.8 0 0 50.8 0 113.4 0 176 50.8 226.8 113.4 226.8S226.8 176 226.8 113.4C226.8 50.8 176 0 113.4 0zM170 170H56.8V56.8H170V170z"/></svg>
